X:1
T:Aus tiefer Not schrei ich zu dir
T:Michael Praetorius: Aus tiefer Not schrei ich zu dir
T:#
T:Michael Praetorius
T:UA
T:Chor 1
T:Chor 1
%%score [ 1 2 3 4 ]
L:1/8
M:4/2
K:C
V:1 treble nm="1"
V:2 treble nm="2"
V:3 treble-8 nm="3"
V:4 bass nm="4"
V:1
{!stemless![Ce]} B8 E4 B4 | c4 B4 G4 A4 | B6 G2 A4 G4 | A4 G4 c4 A4 |"^5" ^G8 z8 | z8 z8 | %6
w: Aus tie- fer|Not schrei ich zu|dir, aus tie- fer|Not schrei ich zu|dir,||
 z4 B4 E4 B4 | c8[K:treble] z8 |"^10" z8 z4 e4 | c4 d4 e8 | z8 z4"^." B4- | B2 E4 B2 c8- | %12
w: aus tie- fer|Not|schrei|ich zu dir,|aus|* tie- fer Not|
 c4 B4 G8 |"^15" A8 B8 | z8 B8 | c4 d4 c8 | z8 z8 |"^20" B4 c2 d2 c4 A4 | G4 F4 E8 | z16 | z16 | %21
w: \_\_ schrei ich|zu dir,|Herr|Gott, er- hör,||Herr Gott, er- hör mein|Ru- * fen,|||
 z16 | z16 |"^26" z8 z4 B4 | E4 B4 c2 B2 G2 A2 |"^28" B8 z8 | z16 | z16 |"^31" z8 z4 B4 | %29
w: ||dein|gnä- dig Ohr neig her zu|mir,|||und|
 c4 d4 c4 A4 | c4 C4 G2 G2"^." A4- | A2 GF E4 E8 |"^35" z8 z2 E2 F2 G2 | F4 z4 z4 A4 | G12 F4 | %35
w: mei- ner Bitt, und|mei- ner Bitt sie öf-|* * * * fen,|und mei- ner|Bitt sie|öf- *|
 E8 z8 | z4 B4 c8 |"^40" d8 c8 | A8 G8 | F8 E8 | z4 A4 G4 c4 | B4 A4 d6 c2 | %42
w: fen,|und mei-|ner Bitt|sie öf-|\-- fen,|denn so du|willst das se- *|
"^45" B2 B2 A4 e2 e2 e4 | z8 z8 | z4 A4 G4 c4 | B4 A4-[K:treble] A4 d8 | z4 c4"^50" B4 B4 | A8 z8 | %48
w: \- hen an, se- hen an,||denn so du|willst das \_\_\_ se-|* * hen|an,|
 z2 c2 B2 c2 d4 G4 | z8[K:treble] z8 | z4 c4 B2 c2 d4 |"^." G8-"^55" G4 E4 | D8 D8 | z8 z16 | %54
w: was Sünd und Un- recht,||was Sünd und Un-|recht * ist|ge- tan,||
 z8 z16 | z8 z16 | z8[K:treble]"^60" z8 | A8 G4 c4 | B8 z8 | z8 A8 | G2 c2 B4 A4 d4- | %61
w: |||denn so du|willst,|denn|so du willst das se-|
"^65" d4 c4 B2 A4 ^G2 | A8 z8 | z4 c4 B2 c2 d4 |"^68" G2 B4 c2 A8 | z16 | z16 | %67
w: * * * \- hen|an,|was Sünd und Un-|recht ist ge- tan,|||
"^71" z4 z2 G2 c4 B4 | z4 z2 G2 c4 B4 |[M:2/2] A4 E4 |[M:4/2] z16 | z16 | z16 |"^77" z8 G8 | %74
w: wer kann, Herr,|wer kann, Herr,|vor dir,||||wer|
 c4 B4 A4 E4 | A2 B2 c4 d4 G4 |"^80" G8 z8 | z16 | z16 | z16 | z8 z4 G4- |"^85" G2 c4 B2 A2 A2 G4 | %82
w: kann, Herr, vor dir,|vor * dir blei- *|ben,||||wer|\_\_ kann, Herr, vor dir blei-|
 F4 A8"^." c4- | c2 c2 G2 A2 B2 AB c4- |"^88" c4 B2 A2 B4 B4 | z16 | z16 |"^91" z8 z4 G4 | c8 B8 | %89
w: ben, wer kann,|* Herr, vor dir blei \- * *|\- * \- * ben,|||wer|kann, Herr,|
 A8[K:treble] E8 | G8"^95" F8 E8- E8- E8 z8 |] %91
w: vor dir|blei- * ben? * *|
V:2
 z8 z4{!stemless![A,A]} E4 | A,4 E8 F4 | E8 C2 D2 E2 E2 | D4 E2 F2 G4 F4 | E8 z8 | z8 z8 | %6
w: Aus|tie- fer Not|schrei ich zu dir, schrei|ich * * * zu|dir,||
 z4 D4 CD E4 E2 | E8[K:treble] z8 | z8 z4 G4 | A4 A4 G8 | z8 z4 D4 | C4 B,4 E8- | E4 E8 D4- | %13
w: aus tie \- * fer|Not|schrei|ich zu dir,|aus|tie- fer Not|\_\_ schrei ich|
 D4 D4 D8 | z8 G8 | A4 F4 E8 | z8 z8 | G4 E2 F2 E4 F4 | E4 D4 ^C8 | z16 | z16 | z16 | z16 | %23
w: * zu dir,|Herr|Gott, er- hör,||Herr Gott, er- hör mein|Ru- * fen,|||||
 z8 z4 E4 | E2 C2 G6 G2 E2 E2 | G8 z8 | z16 | z16 | z8 z4 ^G4 | A4 D4 E4 F4 | E6 DC D2 E4 D2 | %31
w: dein|gnä- dig Ohr neig her zu|mir,|||und|mei- ner Bitt, und|mei- * * * * ner|
 E2 DC B,2 A,2 B,4 B,4 | z8 z2 C2 A,2 C2 | C4 z4 z4 E4 | E12 D4 | C8 z8 | z4 E8 A4- | A4 G4 G4 C4 | %38
w: Bitt * * * sie öf- fen,|und mei- ner|Bitt sie|öf- *|fen,|und mei-|* ner Bitt, und|
 C6 D2 E4 D4 | D8 ^C8 | z4 E6 E4 E2 | E6 F2 G4 A4 | G4 F4 E2 E2 E4 | z8 z8 | z4 F4 E4 G4 | %45
w: mei- ner Bitt sie|öf- fen,|denn so du|willst * * das|se- * * hen an,||denn so du|
 G4 E4[K:treble] F12 | z4 E4 E8 | z8 z2 G2 G2 G2 | F4 E4 z8 | z8[K:treble] z8 | z4 B,4 C2 D2 E4 | %51
w: willst das se-|hen an,|was Sünd und|Un- recht,||was Sünd und Un-|
 D4 C2 B,2 A,4 A,4 | B,8 z8 | z16 | z16 | z16 | z8[K:treble] z8 | E8 E4 G4 | G8 z8 | z8 E8 | %60
w: recht ist * * ge-|tan,|||||denn so du|willst,|denn|
 E2 G2 G3 F E4 F4 | G4 E2 F2 G2 E2 E4 | E8 z8 | z4 E8 F4 | E2 D2 G4 F2 F2 F4 | z16 | z16 | %67
w: so du willst * * *|\_\_\_ das * * se- hen|an,|was Sünd|und Un- recht ist ge- tan,|||
 z4 z2 E2 E4 D4 | z4 z2 E2 A4 G4 |[M:2/2] F4 G4 |[M:4/2] z16 | z16 | z16 | z8 z4 E4 | E4 D4 E4 G4 | %75
w: wer kann, Herr,|wer kann, Herr,|vor dir,||||wer|kann, Herr, vor dir|
 F4 G2 C2 F4 E4 | D4 D4 z8 | z16 | z16 | z16 | z8 z8 | z4 E6 F4 ED | C2 C2 F2 E2 D2 D2 C4 | %83
w: blei- ben, wer kann, Herr,|vor dir,|||||wer kann, * *|* wer kann, Herr, vor dir blei-|
 G4 E4 F2 F2 E2 E2 | D8 G8 | z16 | z16 | z8 z4 E4 | G8 G8 | F4 E4-[K:treble] E2 F2 G4 | %90
w: ben, wer kann, Herr, vor dir|blei- ben,|||wer|kann, Herr,|vor dir * * *|
 G8 A8 A4 A8 E4 E8- E8 |] %91
w: blei- ben, vor dir blei- ben? *|
V:3
 z8 z8 | z2{!stemless![De]} B2 E2 B2 c4 B4 | z16 | A4 B4 e4 d2 c2 | B8 z8 | z8 z8 | %6
w: |Aus tie- fer Not schrei||ich zu dir * *|||
 z4 z2 G2 cB A4 ^G2 | A8[K:treble-8] z8 | z8 z4 B4 | A4 A4 B8 | z8 z4 ^F4 | G2 A4 G2 A4 A4 | %12
w: aus tie \- * fer|Not|schrei|ich zu dir,|aus|tie- * \- * fer|
 G4 G4 B6 AG | ^F4 F4 G8 | z8 B4 e8 | z4 A4 c8 | z8 z8 | e4 c2 A3 B c2"^." c4- | c2 c2 A4 A8 | %19
w: Not schrei ich * *|* zu dir,|Herr Gott,|er- hör,||Herr Gott, er- * \- hör|* mein Ru- fen,|
 z16 | z16 | z16 | z16 | z8 z2 B2 E2 B2 | c4 d4 e2 d2 c2 c2 | B8 z8 | z16 | z16 | z8 z4 E4 | %29
w: ||||dein gnä- dig|Ohr neig her * * zu|mir,|||und|
 A4 G6 A4 F2 | G4 A4 B4 c2 d2 | c2 A2 G2 F2 E8 | z8 z2 G2 F2 E2 | A4 z4 z4 A4 | B4 c6 B2 A4 | %35
w: mei- ner Bitt, und|mei- ner Bitt sie *|öff * * * fen,|und mei- ner|Bitt sie|öf- * * \-|
 A8 z8 | z8 e8 | d2 d2 dcBA G4 G2 c2- | c2 B2 A3 B c4"^." d4- | d2 A2 A4 A8 | z4 c6 B2 A4 | %41
w: fen,|und|mei- ner Bitt * * * * sie öf-|\- * * \- * fen,|* sie öf- fen,|denn * *|
 G4 c4 B4 A4 | d6 c2 B2 B2 A4 | z8 z8 | z4 d4 B4 e4 | d4 c4[K:treble-8] c4 d4 |"^." A8- A4 ^G4 | %47
w: so du willst das|se- * * hen an,||denn so, denn|so du willst das|se- \- hen|
 A8 z8 | z2 e2 d2 c2- c2 B2 c4 | z8[K:treble-8] z8 | G8 E2 F2 G4 | D4 G8 ^F4 | G8 z8 | z16 | z16 | %55
w: an,|was Sünd und * Un- recht,||was Sünd und Un-|recht ist ge-|tan,|||
 z16 | z8[K:treble-8] z8 | c8 B4 e4 | d8 z8 | z8 c8 | B2 e2 d4 c3 B A2 B2- | %61
w: ||denn so du|willst,|denn|so du willst das * * se-|
 B2 B2 A2 A2 B2 c2 B2 B2 | A8 z8 | z4 G4 G4 A4 | c2 Bc d2 e2 c2 c2 c4 | z16 | z16 | %67
w: \- hen an, das se * * hen|an,|was Sünd und|Un- * * * recht ist ge- tan,|||
 z4 z2 G2 G4 G4 | z4 z2 B2 e6 d2 |[M:2/2] c4 c4 |[M:4/2] z16 | z16 | z16 | z8 z4 c4 | c4 G4 c6 B2 | %75
w: wer kann, Herr,|wer kann, Herr,|vor dir,||||wer|kann, wer kann, Herr,|
 A4 G4 A2 B2 c4 | B8 z8 | z16 | z16 | z16 | z8 z8 | G8 c2 c2 c2 B2 | A3 B c4 A6 A2 | %83
w: vor dir blei * *|ben,|||||wer kann, Herr, vor dir|blei \- * ben, wer|
 e2 e2 B2 c2 d4 G4- | G2 A2 B2 c2 d8 | z16 | z16 | z8 z4 c4 | e8 d8 | z4 c4[K:treble-8] G4 c4 | %90
w: kann, Herr, vor dir blei- ben,||||wer|kann, Herr,|wer kann, Herr,|
 B8 A6 A2 c4 c4 A4 B4 c2 B2 A4 ^G8 |] %91
w: vor dir, wer kann, Herr, vor dir blei \- * ben?|
V:4
 z8 z8 |{!stemless![E,,A,]} E,8 A,,4 E,4 | z16 | F,4 E,4 C,4 D,4 | E,8 z8 | z8 z8 | %6
w: |Aus tie- fer||Not schrei ich zu|dir,||
 z4 G,4 A,4 E,4 | A,,8[K:bass] z8 | z8 z4 E,4 | F,4 F,4 E,8 | z8 z4 B,,4 | E,4 E,4 A,,6 B,,2 | %12
w: aus tie- fer|Not|schrei|ich zu dir,|aus|tie- fer Not *|
 C,2 D,2 E,8 G,4 | D,4 D,4 G,,8 | z8 E,8 | A,,4 D,4 A,8 | z8 z8 | E,4 A,2 D,2 A,3 G, F,2 F,,2 | %18
w: * * * schrei|ich zu dir,|Herr|Gott, er- hör,||Herr Gott, er- hör * * mein|
 C,4 D,4 A,,8 | z16 | z16 | z16 | z16 | z8 z4 E,4 | A,2 A,2 G,F,E,D, C,2 G,,2 C,2 A,,2 | E,8 z8 | %26
w: Ru- * fen,|||||dein|gnä- dig Ohr * * * * neig her zu|mir,|
 z16 | z16 | z8 z4 z2 B,,2 | C,4 D,4 z8 | C,4 A,,4 G,,4 F,,4 | E,,8 z8 | z2 C,2 D,2 C,2 F,,4 z4 | %33
w: ||und|mei- ner|Bitt sie öf- *|fen,|und mei- ner Bitt|
 z4 A,,4 z8 | E,6 D,2 C,4 D,4 | A,,8 z8 | z4 E,4 A,8 | D,2 D,2 G,4 C,8 | F,8 C,4 G,4 | D,8 z8 | %40
w: sie|öf- * \- *|fen,|und mei-|ner, und mei- ner|Bitt sie öf-|fen,|
 A,8 E,4 A,,4 | E,4 A,4 G,4 ^F,4 | G,4 D,4 E,2 E,2 A,,4 | z8 z8 | z4 D,4 E,4 C,4 | %45
w: denn so du|willst das se *|\- \- * hen an,||denn so du|
 G,4 A,2 G,2[K:bass] F,2 E,2 D,2 E,2 | F,2 G,2 A,4 E,4 E,4 | A,,8 z8 | z2 C,2 G,2 E,2 D,4 C,4 | %49
w: willst das * * * * *|* * * se- hen|an,|was Sünd und Un- recht,|
 z8[K:bass] z8 | z8 C,8 | B,,4 C,4 D,8 | G,,8 z8 | z16 | z16 | z16 | z8[K:bass] z8 | A,,8 E,4 C,4 | %58
w: |was|Sünd und Un-|recht,|||||denn so du|
 G,8 z8 | z8 A,8 | E,2 C,2 G,4 A,4 D,4 | E,8 A,,8 | z8 z4 C,4 | E,4 D,4 E,F, G,4 C,2 | %64
w: willst,|denn|so du willst das se-|hen an,|was|Sünd und Un * * recht|
 F,2 F,2 F,4 z8 | z16 | z16 | z4 z2 E,2 C,4 G,,4 | z4 z2 G,2 A,4 E,4 |[M:2/2] F,4 C,4 | %70
w: ist ge- tan,|||wer kann, Herr,|wer kann, Herr,|vor dir,|
[M:4/2] z16 | z16 | z16 | z8 z8 | z8 z4 C,4 | F,4 E,4 D,4 C,4 | G,4 G,4 z8 | z16 | z16 | z16 | %80
w: ||||wer|kann, Herr, vor dir|blei- ben,||||
 z8 z8 | C,8 F,8 | E,8 D,4 C,4 | z16 | G,8 G,8 | z16 | z16 | z8 z4 C,4 | C,8 G,8 | %89
w: |wer kann,|Herr, vor dir||blei- ben,|||wer|kann, Herr,|
 D,4 E,4[K:bass] C,8 | G,6 G,2 D,4 D,4 A,8 E,8 A,,8 E,8 |] %91
w: vor dir blei-|ben, wer kann, Herr, vor dir blei- ben?|

